X: 96
M:6/4
L:1/8
K:Gmin
gf | g3a b2^f2d2f2 | g3a b2c'3b a2 | ^f6d4f2 | g3ab2^f2d2f2 | g2d2B2c2D2^F2 | G6G,4 ||

